fs/arrow_counterclockwise_dashes_24_filled.svg

<svg viewBox="0 0 24 24" fill="none" xmlns="http://www.w3.org/2000/svg" height="1em" width="1em">
  <path d="M12 2.75C12.6584 2.75 13.3017 2.81894 13.9228 2.95034C14.4632 3.06464 14.8085 3.59532 14.6942 4.13565C14.5799 4.67598 14.0492 5.02134 13.5089 4.90703C13.023 4.80425 12.5184 4.75 12 4.75C11.4816 4.75 10.977 4.80425 10.4911 4.90703C9.95075 5.02134 9.42007 4.67597 9.30577 4.13565C9.19146 3.59532 9.53683 3.06464 10.0772 2.95034C10.6983 2.81894 11.3416 2.75 12 2.75ZM6.25 4.7539V4.25C6.25 3.69772 5.80228 3.25 5.25 3.25C4.69772 3.25 4.25 3.69772 4.25 4.25V7.25C4.25 7.80228 4.69772 8.25 5.25 8.25H8.25C8.80229 8.25 9.25 7.80228 9.25 7.25C9.25 6.69772 8.80229 6.25 8.25 6.25H7.58344C7.73491 6.13346 7.8911 6.02278 8.05168 5.91829C8.51458 5.61706 8.64565 4.99761 8.34443 4.5347C8.0432 4.0718 7.42375 3.94073 6.96084 4.24195C6.7156 4.40154 6.4784 4.57244 6.25 4.7539ZM15.6556 4.5347C15.9568 4.0718 16.5763 3.94073 17.0392 4.24196C18.1244 4.94813 19.0519 5.87564 19.758 6.96084C20.0593 7.42375 19.9282 8.0432 19.4653 8.34443C19.0024 8.64565 18.3829 8.51458 18.0817 8.05168C17.5277 7.20035 16.7997 6.47227 15.9483 5.91829C15.4854 5.61706 15.3543 4.99761 15.6556 4.5347ZM19.8644 9.30577C20.4047 9.19146 20.9354 9.53683 21.0497 10.0772C21.1811 10.6983 21.25 11.3416 21.25 12C21.25 12.6584 21.1811 13.3017 21.0497 13.9228C20.9354 14.4632 20.4047 14.8085 19.8644 14.6942C19.324 14.5799 18.9787 14.0492 19.093 13.5089C19.1957 13.023 19.25 12.5184 19.25 12C19.25 11.4816 19.1957 10.977 19.093 10.4911C18.9787 9.95075 19.324 9.42007 19.8644 9.30577ZM3.75 10.25C4.30228 10.25 4.75 10.6977 4.75 11.25V12C4.75 12.5184 4.80425 13.023 4.90703 13.5089C5.02134 14.0492 4.67598 14.5799 4.13565 14.6942C3.59532 14.8085 3.06464 14.4632 2.95034 13.9228C2.81894 13.3017 2.75 12.6584 2.75 12V11.25C2.75 10.6977 3.19772 10.25 3.75 10.25ZM4.5347 15.6556C4.99761 15.3543 5.61706 15.4854 5.91829 15.9483C6.47227 16.7997 7.20035 17.5277 8.05168 18.0817C8.51458 18.3829 8.64565 19.0024 8.34443 19.4653C8.0432 19.9282 7.42375 20.0593 6.96084 19.758C5.87564 19.0519 4.94813 18.1244 4.24195 17.0392C3.94073 16.5762 4.0718 15.9568 4.5347 15.6556ZM18.0817 15.9483C18.3829 15.4854 19.0024 15.3544 19.4653 15.6556C19.9282 15.9568 20.0593 16.5763 19.758 17.0392C19.0519 18.1244 18.1244 19.0519 17.0392 19.758C16.5762 20.0593 15.9568 19.9282 15.6556 19.4653C15.3543 19.0024 15.4854 18.3829 15.9483 18.0817C16.7997 17.5277 17.5277 16.7997 18.0817 15.9483ZM13.5089 19.093C14.0492 18.9787 14.5799 19.324 14.6942 19.8644C14.8085 20.4047 14.4632 20.9354 13.9228 21.0497C13.3017 21.1811 12.6584 21.25 12 21.25C11.3416 21.25 10.6983 21.1811 10.0772 21.0497C9.53683 20.9354 9.19146 20.4047 9.30577 19.8644C9.42007 19.324 9.95075 18.9787 10.4911 19.093C10.977 19.1957 11.4816 19.25 12 19.25C12.5184 19.25 13.023 19.1957 13.5089 19.093Z" fill="#212121"/>
</svg>

<svg viewBox="0 0 24 24" fill="none" xmlns="http://www.w3.org/2000/svg" height="1em" width="1em">
  <path d="M12 2.75c.658 0 1.302.069 1.923.2a1 1 0 1 1-.414 1.957 7.284 7.284 0 0 0-3.018 0 1 1 0 1 1-.414-1.957A9.283 9.283 0 0 1 12 2.75ZM6.25 4.754V4.25a1 1 0 0 0-2 0v3a1 1 0 0 0 1 1h3a1 1 0 1 0 0-2h-.667c.152-.117.308-.227.469-.332A1 1 0 0 0 6.96 4.242c-.245.16-.483.33-.711.512Zm9.406-.22a1 1 0 0 1 1.383-.292 9.293 9.293 0 0 1 2.719 2.719 1 1 0 1 1-1.676 1.09 7.294 7.294 0 0 0-2.134-2.133 1 1 0 0 1-.292-1.383Zm4.208 4.772a1 1 0 0 1 1.186.771 9.283 9.283 0 0 1 0 3.846 1 1 0 1 1-1.957-.414 7.29 7.29 0 0 0 0-3.018 1 1 0 0 1 .771-1.185ZM3.75 10.25a1 1 0 0 1 1 1V12c0 .518.054 1.023.157 1.509a1 1 0 1 1-1.957.414A9.283 9.283 0 0 1 2.75 12v-.75a1 1 0 0 1 1-1Zm.785 5.406a1 1 0 0 1 1.383.292 7.294 7.294 0 0 0 2.134 2.134 1 1 0 0 1-1.091 1.676 9.293 9.293 0 0 1-2.719-2.719 1 1 0 0 1 .293-1.383Zm13.547.292a1 1 0 0 1 1.676 1.091 9.292 9.292 0 0 1-2.719 2.719 1 1 0 1 1-1.09-1.676 7.293 7.293 0 0 0 2.133-2.134Zm-4.573 3.145a1 1 0 1 1 .414 1.957 9.283 9.283 0 0 1-3.846 0 1 1 0 1 1 .414-1.957 7.29 7.29 0 0 0 3.018 0Z" fill="#212121"/>
</svg>
